X:45
T:White Man's Rain Chant
T:Regengesang
C:Leslie Fish
Z:http://www.skaldenmet.com/2andere/O-T/regengesang.htm
M:4/4
L:1/8
Q:1/4=120
K:Bb % 2 flats 
%%MIDI program 0
e2 d2 ed cG | B B/2B/2 B G/2G/2 Bc c2 |
g2 f2 ed ed | e e/2e/2 f f/2f/2 ed c2 ||[M:7/8] z4 z3 ||
[M:4/4] e e/2e/2 ef gg fd | e e/2e/2 e e/2e/2 fg g2 |
g>g fd e>e dG | e e/2e/2 f f/2f/2 ed c2 ||[M:3/8] z3 :|
W:Chorus:
W:Hail Thor, Lord of Thunders,
W:master of the winds of the western world!
W:Hail Thor, hammer-wielder,
W:lord of lightning, lord of storms!
W:
W:Bring the wind that bears the waters,
W:Master of the winds of the western world.
W:Call the cloud and all it utters,
W:Lord of lightning, lord of storms.
W:
W:(Chorus)
W:
W:Fetch the flock of cloud-sheep grazing...
W:Master of the winds of the western world.
W:Lift the lash of lightning blazing...
W:Lord of lightning, lord of storms.
W:
W:(Chorus)
W:
W:In your arms the waters gather...
W:Master of the winds of the western world.
W:Whip the waves to rage and lather...
W:Lord of lightning, lord of storms.
W:
W:(Chorus)
W:
W:Draw the drops of the sky together...
W:Master of the winds of the western world
W:Break the back of burning weather...
W:Lord of lightning, lord of storms.
W:
W:(Chorus)
W:
W:Join our joy of feast and singing...
W:Master of the winds of the western world.
W:Set the sky with laughter ringing...
W:Lord of lightning, lord of storms.
W:
W:(Chorus)
W:
W:© Leslie Fish. All rights reserved.
W:
W:Refrain:
W:Heil, Thor, Hammer-Schwinger,
W:Herr über Westwind, Regenbringer!
W:Heil, Thor, Donner-Meister,
W:Herr des Blitzes, Herr des Sturms!
W:
W:Bring den Wind voll Wassermassen...
W:Herr über Westwind Regenbringer!
W:Ruf den Regen, laß ihn prasseln...
W:Herr des Blitzes, Herr des Sturms!
W:
W:Refrain
W:
W:Hol der Wolkenschafe Herde...
W:Herr über Westwind, Regenbringer!
W:Schick den Blitz herab zur Erde...
W:Herr des Blitzes, Herr des Sturms!
W:
W:Refrain
W:
W:Laß von Mjöllnir Blitze schnellen... 
W:Herr über Westwind, Regenbringer!
W:Schlag den Schaum auf wilden Wellen...
W:Herr des Blitzes, Herr des Sturms!
W:
W:Refrain
W:
W:Laß die Himmelstropfen fließen...
W:Herr über Westwind, Regenbringer!
W:und auf trockne Erde gießen...
W:Herr des Blitzes, Herr des Sturms!
W:
W:Refrain
W:
W:Feiere mit uns, laß uns singen...
W:Herr über Westwind, Regenbringer!
W:Laß dein Donnerlachen klingen...
W:Herr des Blitzes, Herr des Sturms!
W:
W:Refrain
W:
W:© Übersetzung: Michaela Macha


%=

%-------------
%Annexe :


